HTML/img/Rhythms/Rhythm_EighthUbeamed.svg

<svg width="612" height="792" viewBox="0 0 40 40" xmlns="http://www.w3.org/2000/svg"><path class="Stem" fill="none" stroke="#000" stroke-width=".65" stroke-linecap="round" stroke-linejoin="bevel" d="M21.54 13.566v16.561M12.528 13.566v16.561"/><path class="Note" d="M25.61 9.873c.625 0 1.152.162 1.582.488.403.351.605.794.605 1.328 0 .898-.462 1.738-1.387 2.52-.937.781-1.94 1.171-3.007 1.171-.625 0-1.153-.162-1.583-.488a1.687 1.687 0 01-.605-1.328c0-.898.469-1.738 1.406-2.52.912-.781 1.908-1.171 2.989-1.171M16.598 9.873c.625 0 1.152.162 1.582.488.403.351.605.794.605 1.328 0 .898-.462 1.738-1.387 2.52-.937.781-1.94 1.171-3.007 1.171-.625 0-1.153-.162-1.582-.488a1.685 1.685 0 01-.606-1.328c0-.898.469-1.738 1.406-2.52.912-.781 1.908-1.171 2.989-1.171"/><path class="Hook" d="M25.766 15.654c.299 0 .618.488.957 1.465.325.963.488 1.881.488 2.754 0 .742-.182 1.477-.547 2.207a8.493 8.493 0 01-1.347 2.031l-1.602 1.797a10.217 10.217 0 00-1.328 1.992 4.923 4.923 0 00-.547 2.227h-.625v-5h.625a44.55 44.55 0 001.563-1.055c.312-.235.781-.625 1.406-1.172.508-.469.892-.951 1.152-1.445.274-.521.41-1.049.41-1.582 0-1.237-.358-2.468-1.074-3.692v-.078c0-.117.039-.215.117-.293a.487.487 0 01.352-.156M16.754 15.654c.299 0 .618.488.957 1.465.326.963.488 1.881.488 2.754 0 .742-.182 1.477-.547 2.207a8.463 8.463 0 01-1.347 2.031l-1.602 1.797a10.217 10.217 0 00-1.328 1.992 4.923 4.923 0 00-.547 2.227h-.625v-5h.625c.352-.222.873-.573 1.563-1.055.312-.235.781-.625 1.406-1.172.508-.469.892-.951 1.152-1.445.274-.521.41-1.049.41-1.582 0-1.237-.358-2.468-1.074-3.692v-.078c0-.117.039-.215.117-.293a.489.489 0 01.352-.156"/></svg>

<?xml version="1.0" encoding="utf-8"?>
<svg width="612px" height="792px" viewBox="0 0 40 40" xmlns="http://www.w3.org/2000/svg">
  <title>Rhythm Reference</title>
  <desc>Generated by MuseScore 2.0.3</desc>
  <polyline class="Stem" fill="none" stroke="#000000" stroke-width="0.65" stroke-linecap="round" stroke-linejoin="bevel" points="21.54 13.566 21.54 30.127"/>
  <polyline class="Stem" fill="none" stroke="#000000" stroke-width="0.65" stroke-linecap="round" stroke-linejoin="bevel" points="12.528 13.566 12.528 30.127"/>
  <path class="Note" d="M 25.61 9.873 C 26.235 9.873 26.762 10.035 27.192 10.361 C 27.595 10.712 27.797 11.155 27.797 11.689 C 27.797 12.587 27.335 13.427 26.41 14.209 C 25.473 14.99 24.47 15.38 23.403 15.38 C 22.778 15.38 22.25 15.218 21.82 14.892 C 21.417 14.541 21.215 14.098 21.215 13.564 C 21.215 12.666 21.684 11.826 22.621 11.044 C 23.533 10.263 24.529 9.873 25.61 9.873"/>
  <path class="Note" d="M 16.598 9.873 C 17.223 9.873 17.75 10.035 18.18 10.361 C 18.583 10.712 18.785 11.155 18.785 11.689 C 18.785 12.587 18.323 13.427 17.398 14.209 C 16.461 14.99 15.458 15.38 14.391 15.38 C 13.766 15.38 13.238 15.218 12.809 14.892 C 12.405 14.541 12.203 14.098 12.203 13.564 C 12.203 12.666 12.672 11.826 13.609 11.044 C 14.521 10.263 15.517 9.873 16.598 9.873"/>
  <path class="Hook" d="M 25.766 15.654 C 26.065 15.654 26.384 16.142 26.723 17.119 C 27.048 18.082 27.211 19 27.211 19.873 C 27.211 20.615 27.029 21.35 26.664 22.08 C 26.287 22.861 25.837 23.538 25.317 24.111 L 23.715 25.908 C 23.22 26.481 22.778 27.145 22.387 27.9 C 22.022 28.629 21.84 29.371 21.84 30.127 L 21.215 30.127 L 21.215 25.127 L 21.84 25.127 C 22.192 24.905 22.712 24.554 23.403 24.072 C 23.715 23.837 24.184 23.447 24.809 22.9 C 25.317 22.431 25.701 21.949 25.961 21.455 C 26.235 20.934 26.371 20.406 26.371 19.873 C 26.371 18.636 26.013 17.405 25.297 16.181 C 25.297 16.181 25.297 16.155 25.297 16.103 C 25.297 15.986 25.336 15.888 25.414 15.81 C 25.518 15.706 25.636 15.654 25.766 15.654"/>
  <path class="Hook" d="M 16.754 15.654 C 17.053 15.654 17.372 16.142 17.711 17.119 C 18.037 18.082 18.199 19 18.199 19.873 C 18.199 20.615 18.017 21.35 17.652 22.08 C 17.275 22.861 16.826 23.538 16.305 24.111 L 14.703 25.908 C 14.208 26.481 13.766 27.145 13.375 27.9 C 13.01 28.629 12.828 29.371 12.828 30.127 L 12.203 30.127 L 12.203 25.127 L 12.828 25.127 C 13.18 24.905 13.701 24.554 14.391 24.072 C 14.703 23.837 15.172 23.447 15.797 22.9 C 16.305 22.431 16.689 21.949 16.949 21.455 C 17.223 20.934 17.359 20.406 17.359 19.873 C 17.359 18.636 17.001 17.405 16.285 16.181 C 16.285 16.181 16.285 16.155 16.285 16.103 C 16.285 15.986 16.324 15.888 16.402 15.81 C 16.507 15.706 16.624 15.654 16.754 15.654"/>
</svg>
